img/model-left.svg

<svg width="1037" height="4505" viewBox="0 0 1037 4505" fill="none" xmlns="http://www.w3.org/2000/svg">
<g opacity="0.08">
<path d="M835.79 144.621C857.723 135.373 877.839 123.755 907.153 118.533C936.466 113.311 968.861 91.7671 975.793 37.5942C919.409 31.2871 893.125 68.5664 887.795 74.2521C882.464 79.9378 835.79 144.621 835.79 144.621Z" stroke="#505666" stroke-width="10" stroke-miterlimit="10" stroke-linecap="round"/>
<path d="M836.375 144.373C856.297 129.682 1000.33 20.4518 1011.81 7.3736" stroke="#505666" stroke-width="10" stroke-miterlimit="10" stroke-linecap="round"/>
</g>
<path opacity="0.08" d="M228.079 1265.5L228.055 1265.5C204.909 1264.76 181.85 1262.32 159.065 1258.19C139.322 1255.16 119.352 1252.1 101.086 1251.43C82.7949 1250.77 66.4218 1252.52 53.8023 1258.96L228.079 1265.5ZM228.079 1265.5H228.103C248.12 1265.5 266.55 1262.39 281.357 1253.16C296.219 1243.89 307.244 1228.56 312.647 1204.52C319.104 1175.84 314.617 1152.37 298.968 1135.69C279.988 1115.17 248.121 1108.18 220.879 1106.29C213.492 1105.77 206.412 1105.64 199.975 1105.71L200.047 1104.72C204.393 1045.29 191.062 1002.53 160.517 978.151C128.595 952.658 87.8057 955.821 68.7256 961.294L68.7186 961.296L68.7116 961.298C60.7324 963.672 47.0907 968.555 33.6702 976.951C20.2569 985.342 6.95364 997.313 -0.165475 1013.9L-0.166461 1013.91C-9.32782 1035.36 -6.63679 1060.31 7.50925 1087.96L9.13172 1091.14L9.13328 1091.14C28.0246 1128.02 39.3206 1150.1 44.912 1172.25C50.487 1194.34 50.4044 1216.58 46.2693 1253.78L45.5115 1260.59L45.2028 1263.37L47.6863 1262.09L53.8005 1258.96L228.079 1265.5ZM194.565 1105.83C180.012 1106.28 169.76 1107.71 168.513 1107.89L167.023 1108.1L167.244 1109.59L168.327 1116.88L168.542 1118.33L169.996 1118.15C170.008 1118.15 170.034 1118.15 170.075 1118.14C171.581 1117.94 192.967 1115.08 218.336 1116.63C244.505 1118.24 274.412 1124.52 291.358 1142.75C304.336 1156.75 308.245 1176.66 302.522 1202.24C298.825 1218.72 292.238 1230.36 283.514 1238.45C274.784 1246.54 263.8 1251.19 251.128 1253.49C225.687 1258.12 193.831 1253.24 160.675 1248.15L160.298 1248.09C140.586 1245.06 121.368 1242.1 103.635 1241.25C86.7456 1240.43 71.0767 1241.51 57.5038 1246.3C60.8974 1211.92 60.2628 1189.74 54.3102 1167.52C48.2437 1144.88 36.6675 1122.26 18.4536 1086.68L18.408 1086.59L18.4067 1086.59L16.7849 1083.4L194.565 1105.83ZM194.565 1105.83L191.08 1105.57L189.589 1105.46L189.693 1103.97C193.631 1047.54 181.456 1008.14 154.048 986.387L154.045 986.385C125.514 963.632 87.6658 966.626 71.6782 971.36C64.3596 973.554 51.8584 977.993 39.6311 985.543C27.3932 993.1 15.5505 1003.7 9.35812 1018.16C1.58465 1036.41 4.01882 1058.29 16.7843 1083.4L194.565 1105.83Z" fill="#7D869D" stroke="#7D869D" stroke-width="3"/>
<path opacity="0.08" d="M378.414 2845.77L380.011 2848.44L381.105 2845.53L384.513 2836.46C384.514 2836.46 384.515 2836.46 384.516 2836.46C393.605 2812.75 387.219 2788.17 364.655 2757.5C377.212 2740.8 384.114 2720.51 384.334 2699.58L384.334 2699.57V2699.57C384.334 2666.26 366.278 2636.21 337.331 2614.54C308.385 2592.86 268.475 2579.5 224.487 2579.5C180.498 2579.5 140.554 2592.9 111.573 2614.6C82.5927 2636.29 64.5 2666.36 64.5 2699.64C64.5 2732.91 82.5927 2762.98 111.573 2784.68C140.554 2806.37 180.498 2819.77 224.487 2819.77C242.187 2819.77 255.428 2818.78 267.533 2815.93C279.528 2813.11 290.336 2808.49 303.221 2801.31C317.147 2802.61 332.075 2807.31 344.844 2813.86C357.788 2820.49 368.315 2828.91 373.4 2837.4C373.4 2837.4 373.4 2837.4 373.401 2837.4L378.414 2845.77ZM300.736 2788.65H300.381L300.064 2788.81L298.811 2789.44L298.777 2789.45L298.745 2789.47C286.211 2796.55 276.179 2800.96 265.057 2803.62C253.919 2806.29 241.608 2807.21 224.487 2807.21C183.688 2807.21 146.752 2795.08 120.052 2775.53C93.3504 2755.98 76.9702 2729.08 76.9702 2699.5C76.9702 2669.91 93.3672 2643.01 120.078 2623.46C146.787 2603.91 183.723 2591.78 224.487 2591.78C265.249 2591.78 302.168 2603.95 328.86 2623.51C355.551 2643.08 371.93 2669.97 371.934 2699.49C371.635 2719.23 364.607 2738.27 352.016 2753.46L352.009 2753.47L352.003 2753.48L349.636 2756.41L348.886 2757.34L349.622 2758.27L351.91 2761.19C351.911 2761.19 351.913 2761.2 351.914 2761.2C370.089 2784.92 377.583 2803.62 375.741 2820.28C367.223 2811.64 355.592 2804.43 343.153 2799.07C329.621 2793.25 315.026 2789.57 302.236 2788.65L302.183 2788.65H302.129H300.736ZM250.395 2629.48L249.987 2628.04L248.542 2628.45L124.861 2663.55L123.42 2663.95L123.827 2665.4L126.407 2674.53L126.815 2675.97L128.26 2675.56L251.942 2640.47L253.383 2640.06L252.975 2638.61L250.395 2629.48ZM186.545 2692.41L186.098 2690.98L184.665 2691.43L135.145 2706.92L133.715 2707.37L134.161 2708.8L136.984 2717.86L137.43 2719.29L138.864 2718.85L188.383 2703.35L189.813 2702.9L189.367 2701.47L186.545 2692.41ZM312.931 2646.04L312.399 2644.63L310.995 2645.17L213.059 2682.35L211.659 2682.88L212.188 2684.28L215.543 2693.16L216.075 2694.56L217.479 2694.03L315.415 2656.85L316.815 2656.31L316.286 2654.91L312.931 2646.04ZM268.411 2707L267.833 2705.62L266.447 2706.2L165.383 2748.52L164.002 2749.1L164.578 2750.48L168.23 2759.24L168.808 2760.63L170.194 2760.05L271.258 2717.72L272.639 2717.14L272.063 2715.76L268.411 2707ZM279.388 2741.89L278.923 2740.46L277.496 2740.92L233.24 2755.4L231.816 2755.86L232.28 2757.29L235.216 2766.3L235.681 2767.73L237.108 2767.26L281.364 2752.79L282.788 2752.33L282.324 2750.9L279.388 2741.89Z" fill="#7D869D" stroke="#7D869D" stroke-width="3"/>
<g opacity="0.08">
<path d="M73.9502 1806.53C86.5391 1830.13 101.594 1851.46 110.431 1883.73C119.267 1916 146.685 1950.05 208.017 1952.28C209.318 1888.54 164.916 1862.93 158.009 1857.55C151.102 1852.16 73.9502 1806.53 73.9502 1806.53Z" stroke="#505666" stroke-width="10" stroke-miterlimit="10" stroke-linecap="round"/>
<path d="M74.2871 1807.16C92.7617 1827.95 229.706 1977.99 245.515 1989.5" stroke="#505666" stroke-width="10" stroke-miterlimit="10" stroke-linecap="round"/>
</g>
<g opacity="0.08">
<path d="M340.048 4496.49C327.453 4461.02 277.323 4339.72 144.24 4324.56C160.498 4449.67 340.048 4496.49 340.048 4496.49Z" stroke="#505666" stroke-width="10" stroke-miterlimit="10" stroke-linecap="round"/>
<path d="M148.269 4328.1C148.269 4328.1 319.293 4465.12 333.346 4489.65" stroke="#505666" stroke-width="10" stroke-miterlimit="10" stroke-linecap="round"/>
<path d="M254.712 4416.49C255.279 4416.97 269.203 4451.33 269.203 4451.33" stroke="#505666" stroke-width="10" stroke-miterlimit="10" stroke-linecap="round"/>
<path d="M236.337 4400.35L255.987 4457.62" stroke="#505666" stroke-width="10" stroke-miterlimit="10" stroke-linecap="round"/>
<path d="M173.42 4349.25C175.554 4350.19 196.57 4415.39 196.57 4415.39" stroke="#505666" stroke-width="10" stroke-miterlimit="10" stroke-linecap="round"/>
</g>
<g opacity="0.08">
<path d="M22.657 3659.85C26.6934 3682.31 45.0263 3725.64 87.1857 3735.48C54.6141 3737.7 45.7974 3755.09 45.7974 3755.09C45.7974 3755.09 89.9167 3755.67 114.149 3773.29C105.668 3783.85 87.5914 3786.58 77.343 3781.84C103.58 3830.25 190.291 3809.4 206.612 3782.91C222.932 3756.41 219.434 3700.43 191.297 3680.19C163.161 3659.96 158.955 3643.03 158.955 3643.03C158.955 3643.03 148.836 3658.14 161.824 3683.06C143.96 3652.76 118.736 3645.06 108.638 3647.48C126.696 3661.68 128.734 3685.17 127.307 3683.97C78.0381 3642.54 22.657 3659.85 22.657 3659.85Z" stroke="#7D869D" stroke-width="10" stroke-miterlimit="10" stroke-linecap="round"/>
<path d="M103.501 3711.1C119.112 3723.66 201.894 3782.57 238.172 3801.19" stroke="#7D869D" stroke-width="10" stroke-miterlimit="10" stroke-linecap="round"/>
<path d="M140.745 3738.47C130.104 3737.48 118.106 3739.94 111.916 3742.85" stroke="#7D869D" stroke-width="10" stroke-miterlimit="10" stroke-linecap="round"/>
<path d="M144.127 3740.73C142.47 3738.97 142.077 3717.85 133.457 3710.67" stroke="#7D869D" stroke-width="10" stroke-miterlimit="10" stroke-linecap="round"/>
<path d="M153.539 3781.99C162.984 3780.54 175.032 3775.21 181.136 3766.09C183.851 3762.03 186.315 3748.85 182.583 3738.6" stroke="#7D869D" stroke-width="10" stroke-miterlimit="10" stroke-linecap="round"/>
</g>
<g opacity="0.08">
<path d="M45.3722 222.35C43.4153 247.297 50.8291 298.332 92.8059 320.48C57.6487 313.784 43.4684 329.785 43.4684 329.785C43.4684 329.785 90.0986 342.643 110.905 368.06C98.9777 376.905 79.0489 374.784 69.4961 366.913C83.8826 425.528 181.629 427.498 206.293 403.932C230.957 380.366 242.791 320.019 218.57 290.747C194.349 261.475 194.589 242.353 194.589 242.353C194.589 242.353 179.662 255.573 186.515 285.609C175.985 248.513 151.371 233.346 139.989 233.111C155.199 253.179 150.838 278.657 149.657 276.992C108.91 219.372 45.3722 222.35 45.3722 222.35Z" stroke="#7D869D" stroke-width="10" stroke-miterlimit="10" stroke-linecap="round"/>
<path d="M116.879 299.15C129.947 316.805 201.383 402.263 234.687 432.084" stroke="#7D869D" stroke-width="10" stroke-miterlimit="10" stroke-linecap="round"/>
<path d="M148.778 338.513C137.767 334.511 124.361 333.786 116.986 335.161" stroke="#7D869D" stroke-width="10" stroke-miterlimit="10" stroke-linecap="round"/>
<path d="M151.735 341.848C150.465 339.526 155.914 317.014 148.763 307.016" stroke="#7D869D" stroke-width="10" stroke-miterlimit="10" stroke-linecap="round"/>
<path d="M150.262 388.224C160.679 389.312 174.937 387.002 183.944 379.024C187.949 375.475 194.222 362.18 193.111 350.268" stroke="#7D869D" stroke-width="10" stroke-miterlimit="10" stroke-linecap="round"/>
</g>
<g opacity="0.08">
<path d="M42.6816 2424.4C85.511 2409.4 232.04 2349.59 251.025 2189.19C100.074 2208.14 42.6816 2424.4 42.6816 2424.4Z" stroke="#505666" stroke-width="10" stroke-miterlimit="10" stroke-linecap="round"/>
<path d="M246.736 2194.03C246.736 2194.03 80.6155 2399.54 50.9545 2416.36" stroke="#505666" stroke-width="10" stroke-miterlimit="10" stroke-linecap="round"/>
<path d="M139.596 2321.92C139.008 2322.6 97.5029 2339.21 97.5029 2339.21" stroke="#505666" stroke-width="10" stroke-miterlimit="10" stroke-linecap="round"/>
<path d="M159.148 2299.85L89.9847 2323.24" stroke="#505666" stroke-width="10" stroke-miterlimit="10" stroke-linecap="round"/>
<path d="M221.099 2224.25C219.954 2226.82 141.216 2251.82 141.216 2251.82" stroke="#505666" stroke-width="10" stroke-miterlimit="10" stroke-linecap="round"/>
</g>
</svg>

<svg width="1037" height="4505" fill="none" xmlns="http://www.w3.org/2000/svg"><path d="M835.79 144.621c21.933-9.248 42.049-20.866 71.363-26.088 29.313-5.222 61.708-26.766 68.64-80.939-56.384-6.307-82.668 30.972-87.998 36.658-5.331 5.686-52.005 70.369-52.005 70.369zm.585-.248c19.922-14.691 163.955-123.921 175.435-137" opacity=".08" stroke="#505666" stroke-width="10" stroke-miterlimit="10" stroke-linecap="round"/><path opacity=".08" d="M228.079 1265.5h-.024a471.239 471.239 0 01-68.99-7.31c-19.743-3.03-39.713-6.09-57.979-6.76-18.291-.66-34.664 1.09-47.284 7.53l174.277 6.54zm0 0h.024c20.017 0 38.447-3.11 53.254-12.34 14.862-9.27 25.887-24.6 31.29-48.64 6.457-28.68 1.97-52.15-13.679-68.83-18.98-20.52-50.847-27.51-78.089-29.4-7.387-.52-14.467-.65-20.904-.58l.072-.99c4.346-59.43-8.985-102.19-39.53-126.569-31.922-25.493-72.711-22.33-91.791-16.857l-.007.002-.007.002c-7.98 2.374-21.621 7.257-35.042 15.653-13.413 8.391-26.716 20.362-33.835 36.949l-.001.01c-9.162 21.45-6.47 46.4 7.675 74.05l1.623 3.18h.001c18.892 36.88 30.188 58.96 35.779 81.11 5.575 22.09 5.492 44.33 1.357 81.53l-.758 6.81-.308 2.78 2.483-1.28 6.114-3.13 174.279 6.54zm-33.514-159.67c-14.553.45-24.805 1.88-26.052 2.06l-1.49.21.221 1.49 1.083 7.29.215 1.45 1.454-.18c.012 0 .038 0 .079-.01 1.506-.2 22.892-3.06 48.261-1.51 26.169 1.61 56.076 7.89 73.022 26.12 12.978 14 16.887 33.91 11.164 59.49-3.697 16.48-10.284 28.12-19.008 36.21-8.73 8.09-19.714 12.74-32.386 15.04-25.441 4.63-57.297-.25-90.453-5.34l-.377-.06c-19.712-3.03-38.93-5.99-56.663-6.84-16.89-.82-32.558.26-46.131 5.05 3.393-34.38 2.759-56.56-3.194-78.78-6.066-22.64-17.643-45.26-35.856-80.84l-.046-.09h-.001l-1.622-3.19 177.78 22.43zm0 0l-3.485-.26-1.491-.11.104-1.49c3.938-56.43-8.237-95.83-35.645-117.583l-.003-.002c-28.531-22.753-66.38-19.759-82.367-15.025-7.318 2.194-19.82 6.633-32.047 14.183-12.238 7.557-24.08 18.157-30.273 32.617-7.773 18.25-5.34 40.13 7.426 65.24l177.781 22.43zm183.849 1739.94l1.597 2.67 1.094-2.91 3.408-9.07h.003c9.089-23.71 2.703-48.29-19.861-78.96a98.085 98.085 0 0019.679-57.92v-.01 0c0-33.31-18.056-63.36-47.003-85.03-28.946-21.68-68.856-35.04-112.844-35.04-43.989 0-83.933 13.4-112.914 35.1-28.98 21.69-47.073 51.76-47.073 85.04 0 33.27 18.093 63.34 47.073 85.04 28.981 21.69 68.925 35.09 112.914 35.09 17.7 0 30.941-.99 43.046-3.84 11.995-2.82 22.803-7.44 35.688-14.62 13.926 1.3 28.854 6 41.623 12.55 12.944 6.63 23.471 15.05 28.556 23.54h.001l5.013 8.37zm-77.678-57.12h-.355l-.317.16-1.253.63-.034.01-.032.02c-12.534 7.08-22.566 11.49-33.688 14.15-11.138 2.67-23.449 3.59-40.57 3.59-40.799 0-77.735-12.13-104.435-31.68-26.702-19.55-43.082-46.45-43.082-76.03 0-29.59 16.397-56.49 43.108-76.04 26.709-19.55 63.645-31.68 104.409-31.68 40.762 0 77.681 12.17 104.373 31.73 26.691 19.57 43.07 46.46 43.074 75.98a86.623 86.623 0 01-19.918 53.97l-.007.01-.006.01-2.367 2.93-.75.93.736.93 2.288 2.92.004.01c18.175 23.72 25.669 42.42 23.827 59.08-8.518-8.64-20.149-15.85-32.588-21.21-13.532-5.82-28.127-9.5-40.917-10.42h-1.5zm-50.341-159.17l-.408-1.44-1.445.41-123.681 35.1-1.441.4.407 1.45 2.58 9.13.408 1.44 1.445-.41 123.682-35.09 1.441-.41-.408-1.45-2.58-9.13zm-63.85 62.93l-.447-1.43-1.433.45-49.52 15.49-1.43.45.446 1.43 2.823 9.06.446 1.43 1.434-.44 49.519-15.5 1.43-.45-.446-1.43-2.822-9.06zm126.386-46.37l-.532-1.41-1.404.54-97.936 37.18-1.4.53.529 1.4 3.355 8.88.532 1.4 1.404-.53 97.936-37.18 1.4-.54-.529-1.4-3.355-8.87zm-44.52 60.96l-.578-1.38-1.386.58-101.064 42.32-1.381.58.576 1.38 3.652 8.76.578 1.39 1.386-.58 101.064-42.33 1.381-.58-.576-1.38-3.652-8.76zm10.977 34.89l-.465-1.43-1.427.46-44.256 14.48-1.424.46.464 1.43 2.936 9.01.465 1.43 1.427-.47 44.256-14.47 1.424-.46-.464-1.43-2.936-9.01z" fill="#7D869D" stroke="#7D869D" stroke-width="3"/><path d="M73.95 1806.53c12.59 23.6 27.644 44.93 36.481 77.2 8.836 32.27 36.254 66.32 97.586 68.55 1.301-63.74-43.101-89.35-50.008-94.73-6.907-5.39-84.059-51.02-84.059-51.02zm.337.63c18.475 20.79 155.419 170.83 171.228 182.34m94.533 2506.99c-12.595-35.47-62.725-156.77-195.808-171.93 16.258 125.11 195.808 171.93 195.808 171.93zM148.269 4328.1s171.024 137.02 185.077 161.55m-78.634-73.16c.567.48 14.491 34.84 14.491 34.84m-32.866-50.98l19.65 57.27m-82.567-108.37c2.134.94 23.15 66.14 23.15 66.14" opacity=".08" stroke="#505666" stroke-width="10" stroke-miterlimit="10" stroke-linecap="round"/><g opacity=".08" stroke="#7D869D" stroke-width="10" stroke-miterlimit="10" stroke-linecap="round"><path d="M22.657 3659.85c4.036 22.46 22.37 65.79 64.529 75.63-32.572 2.22-41.389 19.61-41.389 19.61s44.12.58 68.352 18.2c-8.481 10.56-26.558 13.29-36.806 8.55 26.237 48.41 112.948 27.56 129.269 1.07 16.32-26.5 12.822-82.48-15.315-102.72-28.136-20.23-32.342-37.16-32.342-37.16s-10.119 15.11 2.869 40.03c-17.864-30.3-43.088-38-53.186-35.58 18.058 14.2 20.096 37.69 18.669 36.49-49.269-41.43-104.65-24.12-104.65-24.12zm80.844 51.25c15.611 12.56 98.393 71.47 134.671 90.09m-97.427-62.72c-10.641-.99-22.639 1.47-28.829 4.38m32.211-2.12c-1.657-1.76-2.05-22.88-10.67-30.06"/><path d="M153.539 3781.99c9.445-1.45 21.493-6.78 27.597-15.9 2.715-4.06 5.179-17.24 1.447-27.49"/></g><g opacity=".08" stroke="#7D869D" stroke-width="10" stroke-miterlimit="10" stroke-linecap="round"><path d="M45.372 222.35c-1.957 24.947 5.457 75.982 47.434 98.13-35.157-6.696-49.338 9.305-49.338 9.305s46.63 12.858 67.437 38.275c-11.927 8.845-31.856 6.724-41.409-1.147 14.387 58.615 112.133 60.585 136.797 37.019 24.664-23.566 36.498-83.913 12.277-113.185-24.221-29.272-23.981-48.394-23.981-48.394s-14.927 13.22-8.074 43.256c-10.53-37.096-35.144-52.263-46.526-52.498 15.21 20.068 10.849 45.546 9.668 43.881-40.747-57.62-104.285-54.642-104.285-54.642zm71.507 76.8c13.068 17.655 84.504 103.113 117.808 132.934m-85.909-93.571c-11.011-4.002-24.417-4.727-31.792-3.352m34.749 6.687c-1.27-2.322 4.179-24.834-2.972-34.832"/><path d="M150.262 388.224c10.417 1.088 24.675-1.222 33.682-9.2 4.005-3.549 10.278-16.844 9.167-28.756"/></g><path d="M42.682 2424.4c42.829-15 189.358-74.81 208.343-235.21-150.951 18.95-208.343 235.21-208.343 235.21zm204.054-230.37s-166.12 205.51-195.781 222.33m88.641-94.44c-.588.68-42.093 17.29-42.093 17.29m61.645-39.36l-69.163 23.39m131.114-98.99c-1.145 2.57-79.883 27.57-79.883 27.57" opacity=".08" stroke="#505666" stroke-width="10" stroke-miterlimit="10" stroke-linecap="round"/></svg>
